!!!OTL: "Mailied" DER MAI TRITT EIN MIT FREUDEN
!!!ARE: Europa, Mitteleuropa, Deutschland, Niederrhein
!!!SCT: Z1262
!!!YEM: Copyright 1995, estate of Helmut Schaffrath.
**kern
*ICvox
*Ivox
*M3/4
*k[b-e-]
*B-:
{4f
=1
4.b-
8cc
8dd
8b-
=2
4.f
8d}
{8e-
8f
=3
4.g
8a
8b-
8g
=4
4f
4e-}
{4d
=5
4e-
4g
8f
8e-
=6
4d
4f}
{4b-
=7
8dd
8cc
4b-
4a
=8
2b-}
{8b-
8cc
=9
4dd
4b-
4ff
=10
4cc
4b-}
{4a
=11
4b-
4g
4cc
=12
4a
4f}
{4f
=13
4.g
8a
8b-
8g
=14
4f
4b-}
{4dd
=15
8dd
8cc
4b-
4a
=16
2b-}
==
!!!AGN: Natur und Welt
!!!ONB: ESAC (Essen Associative Code) Database: ZUCCAL
!!!AMT: simple triple
!!!AIN: vox
!!!EED: Helmut Schaffrath
!!!EEV: 1.0
*-
